apps/frontend/src/assets/icons/list-box-outline.svg

<svg xmlns="http://www.w3.org/2000/svg" fill="none" viewBox="0 0 24 24"><path fill="currentColor" d="M11 15h6v2h-6zM9 7H7v2h2zm2 6h6v-2h-6zm0-4h6V7h-6zm-2 2H7v2h2zm12-6v14c0 1.1-.9 2-2 2H5c-1.1 0-2-.9-2-2V5c0-1.1.9-2 2-2h14c1.1 0 2 .9 2 2m-2 0H5v14h14zM9 15H7v2h2z"/></svg>

<svg width="24" height="24" viewBox="0 0 24 24" fill="none" xmlns="http://www.w3.org/2000/svg">
<path d="M11 15H17V17H11V15ZM9 7H7V9H9V7ZM11 13H17V11H11V13ZM11 9H17V7H11V9ZM9 11H7V13H9V11ZM21 5V19C21 20.1 20.1 21 19 21H5C3.9 21 3 20.1 3 19V5C3 3.9 3.9 3 5 3H19C20.1 3 21 3.9 21 5ZM19 5H5V19H19V5ZM9 15H7V17H9V15Z" fill="currentColor"/>
</svg>
